images/linkedin.svg

<svg width="27" height="24" viewBox="0 0 27 24" fill="none" xmlns="http://www.w3.org/2000/svg">
<path d="M5.05684 8.04199H4.51518C3.4938 8.04199 2.98312 8.04199 2.66581 8.35929C2.34851 8.67661 2.34851 9.18729 2.34851 10.2087V19.417C2.34851 20.4384 2.34851 20.949 2.66581 21.2664C2.98312 21.5837 3.4938 21.5837 4.51518 21.5837H5.05684C6.07822 21.5837 6.5889 21.5837 6.90621 21.2664C7.22351 20.949 7.22351 20.4384 7.22351 19.417V10.2087C7.22351 9.18729 7.22351 8.67661 6.90621 8.35929C6.5889 8.04199 6.07822 8.04199 5.05684 8.04199Z" fill="#AEAEAE"/>
<path d="M7.22351 3.60449C7.22351 4.95069 6.1322 6.04199 4.78601 6.04199C3.43982 6.04199 2.34851 4.95069 2.34851 3.60449C2.34851 2.2583 3.43982 1.16699 4.78601 1.16699C6.1322 1.16699 7.22351 2.2583 7.22351 3.60449Z" fill="#AEAEAE"/>
<path d="M13.285 8.04199H12.3902C11.3688 8.04199 10.8581 8.04199 10.5408 8.35929C10.2235 8.67661 10.2235 9.18729 10.2235 10.2087V19.417C10.2235 20.4384 10.2235 20.949 10.5408 21.2664C10.8581 21.5837 11.3688 21.5837 12.3902 21.5837H12.9318C13.9532 21.5837 14.4639 21.5837 14.7812 21.2664C15.0985 20.949 15.0985 20.4384 15.0985 19.417L15.0986 15.6254C15.0986 13.8306 15.6706 12.3754 17.3604 12.3754C18.2052 12.3754 18.8902 13.103 18.8902 14.0004V18.8754C18.8902 19.8968 18.8902 20.4075 19.2075 20.7248C19.5247 21.0421 20.0355 21.0421 21.0568 21.0421H21.5971C22.6183 21.0421 23.1288 21.0421 23.4461 20.7249C23.7634 20.4077 23.7636 19.8971 23.7638 18.876L23.7653 12.9172C23.7653 10.2249 21.2046 8.04225 18.67 8.04225C17.2272 8.04225 15.9399 8.74952 15.0986 9.85549C15.0985 9.17288 15.0985 8.83163 14.9503 8.57824C14.8564 8.41776 14.7227 8.28415 14.5623 8.19027C14.3089 8.04199 13.9676 8.04199 13.285 8.04199Z" fill="#AEAEAE"/>
</svg>

<svg xmlns="http://www.w3.org/2000/svg" width="27" height="24" fill="none"><path fill="#AEAEAE" d="M5.057 8.042h-.542c-1.021 0-1.532 0-1.85.317-.316.318-.316.828-.316 1.85v9.208c0 1.021 0 1.532.317 1.85.317.317.828.317 1.85.317h.54c1.022 0 1.533 0 1.85-.318.318-.317.318-.828.318-1.849v-9.208c0-1.022 0-1.532-.318-1.85-.317-.317-.828-.317-1.85-.317M7.224 3.604a2.437 2.437 0 1 1-4.875 0 2.437 2.437 0 0 1 4.875 0M13.285 8.042h-.895c-1.021 0-1.532 0-1.85.317-.316.318-.316.828-.316 1.85v9.208c0 1.021 0 1.532.317 1.85.317.317.828.317 1.85.317h.54c1.022 0 1.533 0 1.85-.318.317-.317.317-.828.317-1.849v-3.792c0-1.794.573-3.25 2.262-3.25.845 0 1.53.728 1.53 1.625v4.875c0 1.022 0 1.532.317 1.85.318.317.828.317 1.85.317h.54c1.021 0 1.532 0 1.85-.317.316-.317.317-.828.317-1.849l.001-5.959c0-2.692-2.56-4.875-5.095-4.875-1.443 0-2.73.708-3.571 1.813 0-.682 0-1.023-.149-1.277a1.1 1.1 0 0 0-.388-.388c-.253-.148-.594-.148-1.277-.148"/></svg>
